X:1
T:6 Lieder, Op.10
T:Mignons Klage
T:2. Mignons Klage
T:Josephine Lang
T:Johann Wolfgang von Goethe
T:6 Lieder, Op.10
T:OpenScore (CC0)
T:OpenScore (CC0)
C:Josephine Lang
Z:Johann Wolfgang von Goethe
Z:OpenScore (CC0)
%%score 1 { 2 | ( 3 4 5 6 ) }
L:1/8
Q:1/4=120
M:4/4
K:D
V:1 treble nm="Singstimme\nVoice"
V:2 treble nm="Pianoforte"
V:3 bass 
V:4 bass 
V:5 bass 
V:6 bass 
V:1
"^Allegro moderato""^agitato" D2 C B, F C ^D2 | E2 !>!c3/2 B/ (B2 ^A) z/ F/ | %2
w: Nur wer die Sehn- sucht kennt,|weiss was ich lei- de, al-|
 F z/ F/ G3/2 G/ ^G3/2 G/ A3/2 A/ | B4 c4 |!ff! d2 A A (AB/A/ G3/2) F/ | E2 z2 z G F E | %6
w: lein, und ab- ge- trennt von al- ler|Freu- de,|seh ich ans Fir- * * * ma-|ment nach je- der|
 A4- AG{/A} (3(GFE) | D4 z4 |!p! A2 ^G3/2 A/ f2 d2 | A2 z2 z4 | z A G F!<(! (E2 GF)!<)! | %11
w: Sei- * * * * *|te|Ach, der mich liebt und|kennt,|ist in der Wei- * *|
 !>!E2 z2 z4 |!p! F z ^E3/2 F/ e2 c2 | F2 z2 z4 |!mp! F2 D3/2 C/ (B,2 B2) | ^A2 z2 z4 | %16
w: te!|Ach! der mich liebt und|kennt,|ist in der Wei- *|te!|
 z4 z2 z!mf! F | F3 F F2 z3/2 F/ | G7/2"^cres." G/ ^G7/2 G/ | B2 A2 z2!f! A2 | f6 d2 | _B8- | %22
w: Es|schwin- delt mir, es|brennt mein Ein- ge|wei- de, es|brennt, es|brennt|
 (_B2 A2-) A ^G =G E | E2 D2 z4 | z8 | z8 |[Q:1/4=116] z8 | z8 | z8 | z8 |[Q:1/4=112] z8 | %31
w: * * * mein Ein- ge-|wei- de.||||||||
 z8[Q:1/4=106] | z8[Q:1/4=100] |"^a Tempo"[Q:1/4=120] D2 C B, F C ^D2 | E2 F3/2 F/ G2 A2 | %35
w: ||Nur wer die Sehn- sucht kennt,|weiss was ich lei- de,|
 B2 c3/2 c/ d c BA | (GF) E G!>(! (F3!>)! E) | D2 z2 z4 | z2 e4 =c3/2 c/ | !^!G2 !^!E2 !^!=C2 z2 | %40
w: nur wer die Sehn- sucht kennt, *|weiss * was ich lei- *|de.|Nur wer die|Sehn- sucht kennt,|
[Q:1/4=116] z2!<(! (e4 B2!<)! |!>(! d2 =c2)!>)! G2 E2 |!<(! (D8!<)! |[Q:1/4=112]!>(! C6-) CB,!>)! | %44
w: weiss, *|* * was ich|lei-||
[Q:1/4=120] B,2 z2 z4 |[Q:1/4=118] z8 |[Q:1/4=116] z8 | !fermata!z8 |] %48
w: de!||||
V:2
!p! (3z [F,B,]D (3z [^G,C]^E (3z [F,C]F (3z [F,=C]^D | %1
"^sim." (3z[I:staff +1] [E,B,][I:staff -1]E (3z [B,^C][E=G] (3z"_cres." [B,C][EG] (3z [^A,C][EF] | %2
 (3z [F,B,D]F!f! (3z [G,B,D]G (3z [^G,D=F]^G (3z [A,DF]A | %3
 (3z!<(! D=F!<)!!>(! (3BFD!>)! (3z!<(! E_B!<)!!>(! (3^cBE!>)! | %4
!f! (3[DAd]!mp!!<(![A,DA][A,DA] (3[A,DFA][A,DFA][A,DFA] (3[A,DFA][A,DFA][A,DFA] (3[A,DFA][A,DFA][A,DFA]!<)! | %5
!f! ([DEBd]2 [B,DEB]>[B,DEB] !^![B,DEB]!^![B,DEB][A,DEA][G,DEG]) | %6
 [DFd]2 [A,DFA]>[A,DFA] [EAe]2 [A,EA]>[A,EA] | %7
 (3[FAdf]!>(![DF][DF] (3[DF][DF][DF] (6:4:1!/![DF]6!>)! | (6:4:1!/![DF]6 (6:4:1!/![DF]6 | %9
 (6:4:1!/![DF]6 (6:4:1!/![DF]6 | (6:4:1!/![DF]6 (3:2:1!/![DE]3 (3[CE][CE][B,E] | %11
 (3:2:1!/![CE]6 (3:2:1!/![CE]6 | (3:2:1!/![CE]6 (3:2:1!/![CE]6 | (3:2:1!/![CE]6 (3:2:1!/![CE]6 | %14
 (3:2:1!/![CD]3"_cres." (3:2:1!/![B,D]3 (3:2:1!/![B,D]3 (3:2:1!/![B,D]3 | %15
!mf! (3[F,C]!mp![F,F][F,F] (3:2:1!/![F,F]3"^6" (3:2:1!/![F,F]6 | (3:2:1!/![F,F]6 (3:2:1!/![F,F]6 | %17
 (3:2:1!/![F,F]6 (3:2:1!/![F,F]6 | (3:2:1!/![G,DG]6 (3:2:1!/![^G,D=F^G]6 | %19
 (3:2:1!/![A,D^FA]6 (3:2:1!/![A,DFA]6 |!f! (3:2:1!/![A,DFA]6 (3:2:1!/![DFAd]6 | %21
 (3:2:1!/![DE_Bd]6 (3:2:1!/![DEBd]6 | %22
 (3:2:1!/![DE_Bd]3!>(! (3:2:1!/![CEAc]3!>)!"_dimin." (3:2:1!/![CEAc]6 | %23
 (3[DFAd]!p![A,DFA][A,DFA] (3:2:1!/![A,DFA]3 (3:2:1!/![A,DFA]3 (3:2:1!/![A,DFA]3 | %24
"^cres."!<(! (3:2:1!/![A,DFA]6 (3:2:1!/![A,DFA]6!<)! |!f! !^![FAdf]8- | [FAdf]2 z2 z4 | %27
!p! !>![B,EG]8- | [B,E-G-]8 | G4 F4- |"^con espress." F2 (F2{/A} G3 F) |"^ritard." !>!F8- | F8 | %33
 (3z [F,B,]D (3z [^G,C]^E (3z [F,C]F (3z [F,=C]^D | %34
 (3z[I:staff +1] [E,B,][I:staff -1]E (3z [A,^D]F (3z"_cres." [G,B,E]G (3z [A,=DF]A | %35
 (3z [B,DG]B (3z [CF^A]c (3z [DFd][EFc] (3z [DFB][=CF!courtesy!=A] | %36
 (3z [B,EG][B,^DF] (3z [B,E]G (3z [B,D]F (3z[I:staff +1] [E,^A,]C | %37
[I:staff -1] (3z[I:staff +1] D,G, (3B,G,D,[I:staff -1] (3DB,G, (3GDB, | [=CG]8 | %39
 z2!f! !^![=CEG=c]2 !^![CEGc]2 !^![CEGc]2 | [=CEG=c]8- | [CEGc]8 | z2!f! [B,DB]2 z2 [B,DB]2 | %43
"_dimin." z2 [B,CGB]2 z2!p! [^A,CF^A]2 |!p! [FB]2"^a Tempo" (D4- DC |!<(! B,2)!<)!!>(! D4!>)! CB, | %46
!p![I:staff +1] [D,F,B,]2[I:staff -1] z2!pp![I:staff +1] B,[I:staff -1] z z2 | %47
[I:staff +1] B,[I:staff -1] z z2 !fermata!z4 |] %48
V:3
 B,,,2 (B,,2 ^A,,2 =A,,2 | G,,2 E,,2 F,,2 F,2) | B,,2 [B,,,B,,]2 [_B,,,_B,,]2 [A,,,A,,]2 | %3
 [^G,,,^G,,]4 [=G,,,=G,,]4 | %4
 (3[F,,,F,,][F,,A,,D,F,][F,,A,,D,F,] (3[F,,A,,D,F,][F,,A,,D,F,][F,,A,,D,F,] (3[F,,A,,D,F,][F,,A,,D,F,][F,,A,,D,F,] (3[F,,A,,D,F,][F,,A,,D,F,][F,,A,,D,F,] | %5
 (3[G,,,G,,]!mp!!<(![G,,B,,D,E,][G,,B,,D,E,] (3[G,,B,,D,E,][G,,B,,D,E,][G,,B,,D,E,] (3[G,,B,,D,E,][G,,B,,D,E,][G,,B,,D,E,] (3[A,,D,E,][A,,D,E,][B,,D,E,]!<)! | %6
 (3[A,,,A,,][A,,D,F,][A,,D,F,] (3[A,,D,F,][A,,D,F,][A,,D,F,] (3[A,,,A,,][A,,D,E,][A,,D,E,] (3[A,,C,E,][A,,C,E,][A,,C,E,] | %7
 [D,,D,]2 z2 z4 | z8 |[K:treble]!p! A2 ^G>A f2 d2 | A2 z2[K:bass] A,2 A,,2- | z2 (E,>F, G,4) | %12
!ped! [^A,,F,]2 z2 z4!ped-up! | z2[K:treble] (^A>c f2 F2) | %14
[K:bass] !>!F,2 F,,2 !>!^G,2 !courtesy!^G,,2 | !>!^A,2!mf! (^A,,>B,, C,2) F,,2- | %16
 F,,2 (C,>D, E,2) F,,2- | F,,2 (B,,>C, D,2) B,,,2 | z2"^cres." (B,,>C, D,2) _B,,,2 | %19
 z2 (D,>E, F,2) A,,,2 | z2 (F,>G, A,2) A,,,2 | z2 (G,>A, _B,2) G,,2 | z2 (E,>F, G,2) A,,2 | %23
 z2 (D,>E, F,2) D,,2 | z2 (D,>E, F,2) D,,2 | [D,A,D]8- | [D,A,D]2 z3/2!p! (D,/ C,2 z3/2 B,,/ | %27
 C,4) z4 | z2 z3/2 (C,/ D,2) z3/2 E,/ | F,,4 z4 | z8 |!pp! z4 [G,B,E]2 z2 | %32
 [F,B,D]2 z2 [E,^A,C]2 z2 | B,,,2 (B,,2 ^A,,2 =A,,2 | G,,2 F,,2 E,,2 D,,2) | %35
 [G,,G,]2 [F,,F,]2 (3:2:2B,,2 C, (3:2:2D,2 ^D, | (3:2:2E,2 F, (3:2:2G,2 E, F,2 F,,2 | %37
!ped! G,,8!ped-up! | [E,,E,G,]8 | z2 !^![E,,G,,=C,E,]2 !^![E,,G,,C,E,]2 !^![E,,G,,C,E,]2 | %40
 [E,,G,,=C,E,]8- | [E,,G,,C,E,]8 | z2 [F,,B,,D,F,]2 z2 [G,,B,,D,G,]2 | z2 [E,,E,]2 z2 [F,,F,]2 | %44
 (3z [B,D][B,D] B,2 ^A,4 | B,,,2 (3B,[D,F,][D,F,] (3z [E,F,][E,F,] (3z [E,F,][D,F,] | %46
 [B,,,B,,]2 z2 [B,,,B,,] z z2 | [B,,,B,,] z !fermata!z2 z4 |] %48
V:4
 x8 | x8 | x8 | x8 | x8 | x8 | x8 | x8 | x8 |[K:treble] x8 | x4[K:bass] x4 | A,,6 A,,>^A,, | x8 | %13
 x2[K:treble] x6 |[K:bass] x8 | x8 | x8 | x8 | x8 | x8 | x8 | x8 | x8 | x8 | x8 | x8 | x8 | x8 | %28
 x8 | x8 | x8 | z4 F,,2 z2 | F,,2 z2 F,,2 z2 | x8 | x8 | x8 | x8 | x8 | x8 | x8 | x8 | x8 | x8 | %43
 x8 | B,,,2 (D,,>E,, F,,4) | x2 (D,,>E,, F,,4) | x8 | x8 |] %48
V:5
 x8 | x8 | x8 | x8 | x8 | x8 | x8 | x8 | x8 |[K:treble] x8 | x4[K:bass] x4 | x8 | x8 | %13
 x2[K:treble] x6 |[K:bass] x4 (3:2:1!/!^E,3 (3:2:1!/!E,3 | x8 | x8 | x8 | x8 | x8 | x8 | x8 | x8 | %23
 x8 | x8 | x8 | x8 | x8 | x8 |[I:staff -1] [^A,E]8 | x8 | x8 | x8 | x8 | x8 | x8 | x8 | x8 | x8 | %39
 x8 | x8 | x8 | x8 | x8 | x8 | (3z[I:staff +1] [D,F,][D,F,] B,2"_dimin." ^A,4 | x8 | x8 |] %48
V:6
 x8 | x8 | x8 | x8 | x8 | x8 | x8 | x8 | x8 |[K:treble] x8 | x4[K:bass] x4 | x8 | x8 | %13
 x2[K:treble] x6 |[K:bass] x8 | x8 | x8 | x8 | x8 | x8 | x8 | x8 | x8 | x8 | x8 | x8 | x8 | x8 | %28
 x8 | x8 | x8 | x8 | x8 | x8 | x8 | x8 | x8 | x8 | x8 | x8 | x8 | x8 | x8 | x8 | %44
 x2 (3z [D,F,][D,F,] (3z [E,F,][E,F,] (3[E,F,][E,F,][E,F,] | x8 | x8 | x8 |] %48

